Hatter-kde-dark/actions/24/colorfx.svg

<?xml version="1.0" encoding="UTF-8"?>
<svg viewBox="0 0 24 24" xmlns="http://www.w3.org/2000/svg">
 <defs id="defs3051">
  <style id="current-color-scheme" type="text/css">.ColorScheme-Text {
        color:#dedede;
      }
      .ColorScheme-Highlight {
        color:#3daee9;
      }</style>
 </defs>
 <g transform="translate(1,1)">/&gt;
  <path class="ColorScheme-Highlight" d="m10.5 3v1.8125h1v-1.8125h-1zm-4.8125 1.9688-0.71875 0.71875 1.2812 1.3125 0.71875-0.75-1.2812-1.2812zm10.625 0-1.2812 1.2812 0.71875 0.75 1.2812-1.3125-0.71875-0.71875zm-5.3125 1.0312c-2.7614 0-5 2.2386-5 5s2.2386 5 5 5 5-2.2386 5-5-2.2386-5-5-5zm-8 4.5v1h1.8125v-1h-1.8125zm14.188 0v1h1.8125v-1h-1.8125zm-10.938 4.5312-1.2812 1.2812 0.71875 0.71875 1.2812-1.2812-0.71875-0.71875zm9.5 0-0.71875 0.71875 1.2812 1.2812 0.71875-0.71875-1.2812-1.2812zm-5.25 2.1562v1.8125h1v-1.8125h-1z" fill="currentColor"/>
 </g>
</svg>

<svg xmlns="http://www.w3.org/2000/svg" viewBox="0 0 24 24">
  <defs id="defs3051">
    <style type="text/css" id="current-color-scheme">
      .ColorScheme-Text {
        color:#dedede;
      }
      .ColorScheme-Highlight {
        color:#3daee9;
      }
      </style>
  </defs><g transform="translate(1,1)">
     />
 <path 
     style="fill:currentColor;fill-opacity:1;stroke:none" 
     d="M 10.5 3 L 10.5 4.8125 L 11.5 4.8125 L 11.5 3 L 10.5 3 z M 5.6875 4.96875 L 4.96875 5.6875 L 6.25 7 L 6.96875 6.25 L 5.6875 4.96875 z M 16.3125 4.96875 L 15.03125 6.25 L 15.75 7 L 17.03125 5.6875 L 16.3125 4.96875 z M 11 6 C 8.23858 6 6 8.2386 6 11 C 6 13.7614 8.23858 16 11 16 C 13.76142 16 16 13.7614 16 11 C 16 8.2386 13.76142 6 11 6 z M 3 10.5 L 3 11.5 L 4.8125 11.5 L 4.8125 10.5 L 3 10.5 z M 17.1875 10.5 L 17.1875 11.5 L 19 11.5 L 19 10.5 L 17.1875 10.5 z M 6.25 15.03125 L 4.96875 16.3125 L 5.6875 17.03125 L 6.96875 15.75 L 6.25 15.03125 z M 15.75 15.03125 L 15.03125 15.75 L 16.3125 17.03125 L 17.03125 16.3125 L 15.75 15.03125 z M 10.5 17.1875 L 10.5 19 L 11.5 19 L 11.5 17.1875 L 10.5 17.1875 z "
     class="ColorScheme-Highlight"
     />
</g></svg>
